site/public/static/illustrations/components/checkbox/hero.svg

<svg
  style="width: 100%; height: 100%"
  width="1490"
  height="838"
  fill="none"
  xmlns="http://www.w3.org/2000/svg"
  class="css-0"
  id="components-checkbox-hero"
>
  <path
    style="fill: var(--color-illustrationBackground020)"
    d="M0 0h1490v838H0z"
  />
  <mask
    id="a"
    mask-type="alpha"
    maskUnits="userSpaceOnUse"
    x="524"
    y="198"
    width="442"
    height="442"
  >
    <path
      style="fill: var(--color-interface010)"
      fill-rule="evenodd"
      clip-rule="evenodd"
      d="M564 198c-22.091 0-40 17.909-40 40v362c0 22.091 17.909 40 40 40h362c22.091 0 40-17.909 40-40V238c0-22.091-17.909-40-40-40H564Zm330.074 141.21c7.848-7.772 7.909-20.435.136-28.284-7.772-7.848-20.435-7.909-28.284-.136L698.811 476.296l-58.193-62.319c-7.539-8.073-20.195-8.507-28.268-.968s-8.506 20.195-.968 28.268l69.44 74.362c9.235 9.89 24.815 10.194 34.429.673L894.074 339.21Z"
    />
  </mask>
  <g filter="url(#b)" mask="url(#a)">
    <path
      style="fill: var(--color-interface010)"
      transform="translate(524 198)"
      d="M0 0h442v442H0z"
    />
    <mask
      id="c"
      mask-type="alpha"
      maskUnits="userSpaceOnUse"
      x="524"
      y="198"
      width="442"
      height="442"
    >
      <rect
        style="fill: var(--color-white)"
        x="524"
        y="198"
        width="442"
        height="442"
        rx="40"
      />
    </mask>
    <g mask="url(#c)">
      <path
        style="fill: var(--color-illustrationPalette060)"
        d="M595.918 59.84c-213.105 57.102-339.677 275.751-282.707 488.367 56.97 212.616 275.91 338.686 489.015 281.585C1015.33 772.69 1141.9 554.041 1084.93 341.425 1027.96 128.809 809.023 2.739 595.918 59.841Z"
      />
      <path
        style="fill: var(--color-illustrationPalette050)"
        d="M1002.99 96.847c.08.044.26.129.54.259 4.38 2.047 32.63 15.254 64.61 51.468 34.01 38.516 72.23 103.078 90.35 207.951 18.11 104.878 5.29 184.546-25.7 244.587s-80.18 100.505-134.894 126.926c-109.454 52.855-224.477 49.295-305.179 3.528-39-22.117-54.519-63.105-73.229-112.52l-1.802-4.756c-19.528-51.489-43.313-111.417-100.749-167.858-63.268-62.173-64.749-157.784-35.217-243.393 14.762-42.792 37.261-83.044 63.618-115.306 26.361-32.267 56.554-56.509 86.688-67.33 60.35-21.67 133.414-13.101 201.27 6.18 67.843 19.277 130.4 49.24 169.694 70.264Z"
        stroke="#446BE4"
      />
      <path
        style="fill: var(--color-illustrationPalette040)"
        d="M1183.35 378.395c.02-.065.07-.207.15-.423 1.25-3.408 9.28-25.376 7.1-61.479-2.32-38.398-16.21-92.815-62.19-157.875-91.98-130.122-219.227-147.702-282.452-111.21-3.543 2.045-7.153 4.118-10.814 6.22-30.013 17.237-63.51 36.475-92.401 58.645-32.423 24.881-58.965 53.396-68.291 86.83-18.678 66.956 11.398 124.372 49.963 191.148 8.997 15.579 15.719 33.41 21.658 51.703 2.701 8.318 5.243 16.738 7.762 25.086l.753 2.495c2.769 9.166 5.528 18.226 8.467 26.965 11.767 34.999 26.342 64.645 55.52 75.167 1.442.52 37.571 10.868 84.275 15.927 46.715 5.061 103.9 4.818 147.52-15.751 86.32-40.701 112.83-127.491 132.33-191.325.22-.71.43-1.418.65-2.123Z"
        stroke="#577FFB"
      />
      <path
        style="fill: var(--color-illustrationPalette030)"
        d="M1136.97 286.428c.01-.037.04-.119.09-.243.71-1.955 5.32-14.529 4.07-35.205-1.33-21.994-9.29-53.184-35.66-90.489-52.74-74.611-125.644-84.628-161.803-63.758-2.034 1.174-4.105 2.364-6.206 3.571-17.225 9.892-36.435 20.924-53.002 33.638-18.595 14.269-33.781 30.598-39.115 49.716-10.691 38.326 6.514 71.199 28.652 109.53 5.174 8.959 9.037 19.209 12.447 29.711 1.551 4.775 3.009 9.609 4.455 14.4l.433 1.432c1.588 5.26 3.171 10.456 4.856 15.468 6.754 20.088 15.093 37.002 31.732 43.003.808.292 21.524 6.226 48.313 9.128 26.798 2.904 59.568 2.758 84.548-9.02 49.44-23.315 64.63-73.04 75.83-109.686l.36-1.196Z"
        stroke="#87A4FC"
      />
    </g>
  </g>
  <defs>
    <filter
      id="b"
      x="508"
      y="190"
      width="474"
      height="474"
      filterUnits="userSpaceOnUse"
      color-interpolation-filters="sRGB"
    >
      <feFlood flood-opacity="0" result="BackgroundImageFix" />
      <feColorMatrix
        in="SourceAlpha"
        values="0 0 0 0 0 0 0 0 0 0 0 0 0 0 0 0 0 0 127 0"
        result="hardAlpha"
      />
      <feOffset dy="8" />
      <feGaussianBlur stdDeviation="8" />
      <feColorMatrix
        values="0 0 0 0 0.0392157 0 0 0 0 0.0392157 0 0 0 0 0.0392157 0 0 0 0.08 0"
      />
      <feBlend
        in2="BackgroundImageFix"
        result="effect1_dropShadow_973_179076"
      />
      <feBlend
        in="SourceGraphic"
        in2="effect1_dropShadow_973_179076"
        result="shape"
      />
    </filter>
  </defs>
</svg>

<svg id="components-checkbox-hero" style="width: 100%; height: 100%" width="1490" height="838" viewBox="0 0 1490 838" fill="none" xmlns="http://www.w3.org/2000/svg" class="css-0"><rect style="fill:var(--color-illustrationBackground020)" width="1490" height="838"></rect><mask id="nk-257" mask-type="alpha" maskUnits="userSpaceOnUse" x="524" y="198" width="442" height="442"><path style="fill:var(--color-interface010)" fill-rule="evenodd" clip-rule="evenodd" d="M564 198C541.909 198 524 215.909 524 238V600C524 622.091 541.909 640 564 640H926C948.091 640 966 622.091 966 600V238C966 215.909 948.091 198 926 198H564ZM894.074 339.21C901.922 331.438 901.983 318.775 894.21 310.926C886.438 303.078 873.775 303.017 865.926 310.79L698.811 476.296L640.618 413.977C633.079 405.904 620.423 405.47 612.35 413.009C604.277 420.548 603.844 433.204 611.382 441.277L680.822 515.639C690.057 525.529 705.637 525.833 715.251 516.312L894.074 339.21Z"></path></mask><g mask="url(#nk-257)"><g filter="url(#nk-259)"><rect style="fill:var(--color-interface010)" width="442" height="442" transform="translate(524 198)"></rect><mask id="nk-258" mask-type="alpha" maskUnits="userSpaceOnUse" x="524" y="198" width="442" height="442"><rect style="fill:var(--color-white)" x="524" y="198" width="442" height="442" rx="40"></rect></mask><g mask="url(#nk-258)"><path style="fill:var(--color-illustrationPalette060)" d="M595.918 59.8407C382.813 116.942 256.241 335.591 313.211 548.207C370.181 760.823 589.121 886.893 802.226 829.792C1015.33 772.69 1141.9 554.041 1084.93 341.425C1027.96 128.809 809.023 2.73928 595.918 59.8407Z"></path><path style="fill:var(--color-illustrationPalette050)" d="M1002.99 96.8475C1003.07 96.8906 1003.25 96.9756 1003.53 97.1055C1007.91 99.1526 1036.16 112.36 1068.14 148.574C1102.15 187.09 1140.37 251.652 1158.49 356.525C1176.6 461.403 1163.78 541.071 1132.79 601.112C1101.8 661.153 1052.61 701.617 997.896 728.038C888.442 780.893 773.419 777.333 692.717 731.566C653.717 709.449 638.198 668.461 619.488 619.046C618.891 617.47 618.29 615.884 617.686 614.29C598.158 562.801 574.373 502.873 516.937 446.432C453.669 384.259 452.188 288.648 481.72 203.039C496.482 160.247 518.981 119.995 545.338 87.7331C571.699 55.4657 601.892 31.2242 632.026 20.4037C692.376 -1.2663 765.44 7.30177 833.296 26.583C901.139 45.8601 963.696 75.8223 1002.99 96.8475Z" stroke="#446BE4"></path><path style="fill:var(--color-illustrationPalette040)" d="M1183.35 378.395C1183.37 378.33 1183.42 378.188 1183.5 377.972C1184.75 374.564 1192.78 352.596 1190.6 316.493C1188.28 278.095 1174.39 223.678 1128.41 158.618C1036.43 28.4959 909.183 10.9163 845.958 47.408C842.415 49.4529 838.805 51.5259 835.144 53.6286C805.131 70.8652 771.634 90.1027 742.743 112.273C710.32 137.154 683.778 165.669 674.452 199.103C655.774 266.059 685.85 323.475 724.415 390.251C733.412 405.83 740.134 423.661 746.073 441.954C748.774 450.272 751.316 458.692 753.835 467.04C754.087 467.873 754.337 468.704 754.588 469.535C757.357 478.701 760.116 487.761 763.055 496.5C774.822 531.499 789.397 561.145 818.575 571.667C820.017 572.187 856.146 582.535 902.85 587.594C949.565 592.655 1006.75 592.412 1050.37 571.843C1136.69 531.142 1163.2 444.352 1182.7 380.518C1182.92 379.808 1183.13 379.1 1183.35 378.395Z" stroke="#577FFB"></path><path style="fill:var(--color-illustrationPalette030)" d="M1136.97 286.428C1136.98 286.391 1137.01 286.309 1137.06 286.185C1137.77 284.23 1142.38 271.656 1141.13 250.98C1139.8 228.986 1131.84 197.796 1105.47 160.491C1052.73 85.8798 979.826 75.8635 943.667 96.7335C941.633 97.9072 939.562 99.0969 937.461 100.304C920.236 110.196 901.026 121.228 884.459 133.942C865.864 148.211 850.678 164.54 845.344 183.658C834.653 221.984 851.858 254.857 873.996 293.188C879.17 302.147 883.033 312.397 886.443 322.899C887.994 327.674 889.452 332.508 890.898 337.299C891.043 337.776 891.187 338.254 891.331 338.731C892.919 343.991 894.502 349.187 896.187 354.199C902.941 374.287 911.28 391.201 927.919 397.202C928.727 397.494 949.443 403.428 976.232 406.33C1003.03 409.234 1035.8 409.088 1060.78 397.31C1110.22 373.995 1125.41 324.27 1136.61 287.624C1136.73 287.224 1136.85 286.825 1136.97 286.428Z" stroke="#87A4FC"></path></g></g></g><defs><filter id="nk-259" x="508" y="190" width="474" height="474" filterUnits="userSpaceOnUse" color-interpolation-filters="sRGB"><feFlood flood-opacity="0" result="BackgroundImageFix"></feFlood><feColorMatrix in="SourceAlpha" type="matrix" values="0 0 0 0 0 0 0 0 0 0 0 0 0 0 0 0 0 0 127 0" result="hardAlpha"></feColorMatrix><feOffset dy="8"></feOffset><feGaussianBlur stdDeviation="8"></feGaussianBlur><feColorMatrix type="matrix" values="0 0 0 0 0.0392157 0 0 0 0 0.0392157 0 0 0 0 0.0392157 0 0 0 0.08 0"></feColorMatrix><feBlend mode="normal" in2="BackgroundImageFix" result="effect1_dropShadow_973_179076"></feBlend><feBlend mode="normal" in="SourceGraphic" in2="effect1_dropShadow_973_179076" result="shape"></feBlend></filter></defs></svg>
